Newaita-dark/.DP/22/weather-few-clouds.svg

<svg xmlns="http://www.w3.org/2000/svg" xmlns:xlink="http://www.w3.org/1999/xlink" width="22px" height="22px" viewBox="0 0 22 22" version="1.1">
<defs>
<linearGradient id="linear0" gradientUnits="userSpaceOnUse" x1="254" y1="233.5" x2="254" y2="254.667007" gradientTransform="matrix(0.0429688,0,0,0.0429688,0,9.01175)">
<stop offset="0" style="stop-color:rgb(0%,0%,0%);stop-opacity:0.275;"/>
<stop offset="1" style="stop-color:rgb(0%,0%,0%);stop-opacity:0;"/>
</linearGradient>
<radialGradient id="radial0" gradientUnits="userSpaceOnUse" cx="450.908997" cy="189.578995" fx="450.908997" fy="189.578995" r="21.167" gradientTransform="matrix(0,-0.0537212,-0.09669,0,33.793375,43.494)">
<stop offset="0" style="stop-color:rgb(0%,0%,0%);stop-opacity:0.314;"/>
<stop offset="0.222" style="stop-color:rgb(0%,0%,0%);stop-opacity:0.275;"/>
<stop offset="1" style="stop-color:rgb(0%,0%,0%);stop-opacity:0;"/>
</radialGradient>
<radialGradient id="radial1" gradientUnits="userSpaceOnUse" cx="450.908997" cy="189.578995" fx="450.908997" fy="189.578995" r="21.167" gradientTransform="matrix(0,0.0537212,0.09669,0,-13.55475,-5.40375)">
<stop offset="0" style="stop-color:rgb(0%,0%,0%);stop-opacity:0.314;"/>
<stop offset="0.222" style="stop-color:rgb(0%,0%,0%);stop-opacity:0.275;"/>
<stop offset="1" style="stop-color:rgb(0%,0%,0%);stop-opacity:0;"/>
</radialGradient>
<radialGradient id="radial2" gradientUnits="userSpaceOnUse" cx="450.908997" cy="189.578995" fx="450.908997" fy="189.578995" r="21.167" gradientTransform="matrix(0,-0.0537212,0.09669,0,-13.55475,43.494)">
<stop offset="0" style="stop-color:rgb(0%,0%,0%);stop-opacity:0.314;"/>
<stop offset="0.222" style="stop-color:rgb(0%,0%,0%);stop-opacity:0.275;"/>
<stop offset="1" style="stop-color:rgb(0%,0%,0%);stop-opacity:0;"/>
</radialGradient>
<radialGradient id="radial3" gradientUnits="userSpaceOnUse" cx="450.908997" cy="189.578995" fx="450.908997" fy="189.578995" r="21.167" gradientTransform="matrix(0,0.0537212,-0.09669,0,33.793375,-5.40375)">
<stop offset="0" style="stop-color:rgb(0%,0%,0%);stop-opacity:0.314;"/>
<stop offset="0.222" style="stop-color:rgb(0%,0%,0%);stop-opacity:0.275;"/>
<stop offset="1" style="stop-color:rgb(0%,0%,0%);stop-opacity:0;"/>
</radialGradient>
<linearGradient id="linear1" gradientUnits="userSpaceOnUse" x1="211.667007" y1="170" x2="211.667007" y2="-126.333" gradientTransform="matrix(0.0429688,0,0,0.0429688,0,7.4195)">
<stop offset="0" style="stop-color:rgb(97.647059%,65.882355%,14.509805%);stop-opacity:1;"/>
<stop offset="1" style="stop-color:rgb(98.431373%,75.294119%,17.647059%);stop-opacity:1;"/>
</linearGradient>
<linearGradient id="linear2" gradientUnits="userSpaceOnUse" x1="960" y1="1695.118042" x2="960" y2="815.117981" gradientTransform="matrix(0.0113699,0.00017504,-0.00017504,0.0113699,0,0)">
<stop offset="0" style="stop-color:rgb(39.215687%,70.980394%,96.470588%);stop-opacity:1;"/>
<stop offset="1" style="stop-color:rgb(56.470591%,79.215688%,97.647059%);stop-opacity:1;"/>
</linearGradient>
</defs>
<g id="surface1">
<path style=" stroke:none;fill-rule:nonzero;fill:url(#linear0);" d="M 4.550781 19.046875 L 15.6875 19.046875 L 15.6875 19.953125 L 4.550781 19.953125 Z M 4.550781 19.046875 "/>
<path style=" stroke:none;fill-rule:nonzero;fill:url(#radial0);" d="M 15.6875 19.046875 L 17.507812 19.046875 L 17.507812 18.136719 L 15.6875 18.136719 Z M 15.6875 19.046875 "/>
<path style=" stroke:none;fill-rule:nonzero;fill:url(#radial1);" d="M 4.550781 19.046875 L 2.726562 19.046875 L 2.726562 19.953125 L 4.550781 19.953125 Z M 4.550781 19.046875 "/>
<path style=" stroke:none;fill-rule:nonzero;fill:url(#radial2);" d="M 4.550781 19.046875 L 2.726562 19.046875 L 2.726562 18.136719 L 4.550781 18.136719 Z M 4.550781 19.046875 "/>
<path style=" stroke:none;fill-rule:nonzero;fill:url(#radial3);" d="M 15.6875 19.046875 L 17.507812 19.046875 L 17.507812 19.953125 L 15.6875 19.953125 Z M 15.6875 19.046875 "/>
<path style=" stroke:none;fill-rule:nonzero;fill:url(#linear1);" d="M 9.09375 1.992188 C 12.609375 1.992188 15.464844 4.839844 15.464844 8.359375 C 15.46875 11.875 12.617188 14.726562 9.097656 14.734375 C 5.582031 14.734375 2.726562 11.878906 2.722656 8.367188 C 2.722656 4.851562 5.574219 1.992188 9.09375 1.992188 Z M 9.09375 1.992188 "/>
<path style=" stroke:none;fill-rule:nonzero;fill:rgb(100%,100%,100%);fill-opacity:0.392;" d="M 9.09375 1.992188 C 7.402344 1.992188 5.785156 2.660156 4.585938 3.851562 C 3.394531 5.046875 2.722656 6.671875 2.726562 8.359375 L 2.726562 8.46875 C 2.78125 4.996094 5.617188 2.207031 9.09375 2.21875 C 12.566406 2.207031 15.410156 4.996094 15.464844 8.46875 L 15.464844 8.359375 C 15.46875 6.664062 14.796875 5.042969 13.601562 3.851562 C 12.40625 2.660156 10.785156 1.988281 9.09375 1.992188 Z M 9.09375 1.992188 "/>
<path style=" stroke:none;fill-rule:nonzero;fill:rgb(12.941177%,12.941177%,12.941177%);fill-opacity:1;" d="M 9.09375 1.929688 C 7.386719 1.921875 5.746094 2.601562 4.542969 3.808594 C 3.335938 5.011719 2.660156 6.648438 2.664062 8.359375 C 2.660156 10.066406 3.335938 11.703125 4.542969 12.914062 C 5.746094 14.117188 7.386719 14.792969 9.09375 14.792969 C 10.800781 14.796875 12.4375 14.121094 13.648438 12.914062 C 14.855469 11.703125 15.53125 10.066406 15.527344 8.359375 C 15.53125 6.648438 14.855469 5.011719 13.648438 3.804688 C 12.4375 2.601562 10.800781 1.921875 9.09375 1.929688 Z M 9.09375 2.058594 C 10.761719 2.050781 12.375 2.710938 13.554688 3.894531 C 14.738281 5.074219 15.402344 6.679688 15.398438 8.359375 C 15.402344 10.03125 14.742188 11.640625 13.554688 12.820312 C 12.375 14.003906 10.769531 14.667969 9.09375 14.664062 C 7.421875 14.664062 5.816406 14.003906 4.636719 12.820312 C 3.453125 11.632812 2.789062 10.027344 2.792969 8.359375 C 2.789062 6.6875 3.453125 5.082031 4.636719 3.898438 C 5.816406 2.71875 7.421875 2.050781 9.09375 2.058594 Z M 9.09375 2.058594 "/>
<path style=" stroke:none;fill-rule:nonzero;fill:rgb(0%,0%,0%);fill-opacity:0.196;" d="M 9.09375 14.726562 C 7.402344 14.726562 5.785156 14.054688 4.585938 12.863281 C 3.394531 11.664062 2.722656 10.050781 2.726562 8.359375 L 2.726562 8.246094 C 2.78125 11.71875 5.617188 14.5 9.09375 14.496094 C 12.566406 14.507812 15.410156 11.71875 15.464844 8.246094 L 15.464844 8.359375 C 15.46875 10.050781 14.796875 11.671875 13.601562 12.863281 C 12.40625 14.0625 10.785156 14.734375 9.09375 14.726562 Z M 9.09375 14.726562 "/>
<path style=" stroke:none;fill-rule:nonzero;fill:url(#linear2);" d="M 15.007812 9.265625 C 13.078125 9.257812 11.316406 10.371094 10.488281 12.117188 C 10.183594 12.035156 9.867188 12 9.550781 12 C 8.039062 11.992188 6.6875 12.929688 6.148438 14.335938 C 5.324219 13.726562 4.222656 13.640625 3.308594 14.109375 C 2.394531 14.578125 1.820312 15.515625 1.820312 16.542969 C 1.820312 18.058594 3.035156 19.273438 4.550781 19.273438 C 4.660156 19.273438 4.769531 19.265625 4.875 19.253906 C 4.921875 19.265625 4.960938 19.273438 5 19.273438 L 15.007812 19.273438 C 16.332031 19.277344 17.613281 18.75 18.550781 17.8125 C 19.484375 16.871094 20.011719 15.597656 20.011719 14.269531 C 20.011719 12.945312 19.484375 11.671875 18.550781 10.730469 C 17.613281 9.792969 16.339844 9.265625 15.007812 9.265625 Z M 15.007812 9.265625 "/>
<path style=" stroke:none;fill-rule:nonzero;fill:rgb(100%,100%,100%);fill-opacity:0.392;" d="M 15.007812 9.265625 C 13.078125 9.257812 11.316406 10.371094 10.488281 12.117188 C 10.183594 12.035156 9.867188 12 9.550781 12 C 8.039062 11.992188 6.6875 12.929688 6.148438 14.335938 C 5.324219 13.726562 4.222656 13.640625 3.308594 14.109375 C 2.394531 14.578125 1.820312 15.515625 1.820312 16.542969 L 1.820312 16.65625 C 1.878906 15.195312 3.089844 14.039062 4.550781 14.046875 C 5.144531 14.046875 5.699219 14.234375 6.148438 14.5625 C 6.6875 13.148438 8.039062 12.21875 9.550781 12.226562 C 9.867188 12.226562 10.183594 12.265625 10.488281 12.34375 C 11.316406 10.601562 13.078125 9.492188 15.007812 9.496094 C 17.730469 9.492188 19.953125 11.664062 20.007812 14.382812 C 20.011719 14.347656 20.011719 14.308594 20.011719 14.269531 C 20.019531 12.945312 19.492188 11.671875 18.550781 10.730469 C 17.613281 9.792969 16.339844 9.265625 15.007812 9.265625 Z M 15.007812 9.265625 "/>
<path style=" stroke:none;fill-rule:nonzero;fill:rgb(0%,0%,0%);fill-opacity:0.235;" d="M 20.007812 14.167969 C 19.960938 16.890625 17.730469 19.074219 15.007812 19.066406 L 5 19.066406 C 4.957031 19.066406 4.921875 19.054688 4.875 19.046875 C 4.769531 19.054688 4.660156 19.066406 4.550781 19.066406 C 3.082031 19.066406 1.875 17.90625 1.820312 16.441406 L 1.820312 16.542969 C 1.820312 18.058594 3.035156 19.273438 4.550781 19.273438 C 4.660156 19.273438 4.769531 19.265625 4.875 19.253906 C 4.921875 19.265625 4.957031 19.273438 5 19.273438 L 15.007812 19.273438 C 16.332031 19.277344 17.605469 18.75 18.546875 17.8125 C 19.484375 16.871094 20.011719 15.597656 20.011719 14.269531 C 20.011719 14.234375 20.011719 14.199219 20.007812 14.167969 Z M 20.007812 14.167969 "/>
<path style="fill:none;stroke-width:0.0937735;stroke-linecap:round;stroke-linejoin:miter;stroke:rgb(12.941177%,12.941177%,12.941177%);stroke-opacity:1;stroke-miterlimit:4;" d="M 10.914773 6.738636 C 9.511364 6.738636 8.230114 7.542614 7.627841 8.8125 C 7.40625 8.752841 7.176136 8.727273 6.946023 8.727273 C 5.846591 8.721591 4.863636 9.403409 4.471591 10.426136 C 3.872159 9.982955 3.071023 9.920455 2.40625 10.261364 C 1.741477 10.602273 1.323864 11.284091 1.323864 12.03125 C 1.323864 13.133523 2.207386 14.017045 3.309659 14.017045 C 3.389205 14.017045 3.46875 14.011364 3.545455 14.002841 C 3.579545 14.011364 3.607955 14.017045 3.636364 14.017045 L 10.914773 14.017045 C 11.877841 14.019886 12.809659 13.636364 13.491477 12.954545 C 14.170455 12.269886 14.553977 11.34375 14.553977 10.377841 C 14.553977 9.414773 14.170455 8.488636 13.491477 7.803977 C 12.809659 7.122159 11.883523 6.738636 10.914773 6.738636 Z M 10.914773 6.738636 " transform="matrix(1.375,0,0,1.375,0,0)"/>
</g>
</svg>

<svg xmlns="http://www.w3.org/2000/svg" width="22pt" height="22pt" viewBox="0 0 22 22"><defs><linearGradient id="a" gradientUnits="userSpaceOnUse" x1="254" y1="233.5" x2="254" y2="254.667" gradientTransform="matrix(.04297 0 0 .04297 0 9.012)"><stop offset="0" stop-opacity=".275"/><stop offset="1" stop-opacity="0"/></linearGradient><radialGradient id="b" gradientUnits="userSpaceOnUse" cx="450.909" cy="189.579" fx="450.909" fy="189.579" r="21.167" gradientTransform="matrix(0 -.05372 -.09669 0 33.793 43.494)"><stop offset="0" stop-opacity=".314"/><stop offset=".222" stop-opacity=".275"/><stop offset="1" stop-opacity="0"/></radialGradient><radialGradient id="c" gradientUnits="userSpaceOnUse" cx="450.909" cy="189.579" fx="450.909" fy="189.579" r="21.167" gradientTransform="matrix(0 .05372 .09669 0 -13.555 -5.403)"><stop offset="0" stop-opacity=".314"/><stop offset=".222" stop-opacity=".275"/><stop offset="1" stop-opacity="0"/></radialGradient><radialGradient id="d" gradientUnits="userSpaceOnUse" cx="450.909" cy="189.579" fx="450.909" fy="189.579" r="21.167" gradientTransform="matrix(0 -.05372 .09669 0 -13.555 43.494)"><stop offset="0" stop-opacity=".314"/><stop offset=".222" stop-opacity=".275"/><stop offset="1" stop-opacity="0"/></radialGradient><radialGradient id="e" gradientUnits="userSpaceOnUse" cx="450.909" cy="189.579" fx="450.909" fy="189.579" r="21.167" gradientTransform="matrix(0 .05372 -.09669 0 33.793 -5.403)"><stop offset="0" stop-opacity=".314"/><stop offset=".222" stop-opacity=".275"/><stop offset="1" stop-opacity="0"/></radialGradient><linearGradient id="f" gradientUnits="userSpaceOnUse" x1="211.667" y1="170" x2="211.667" y2="-126.333" gradientTransform="matrix(.04297 0 0 .04297 0 7.42)"><stop offset="0" stop-color="#f9a825"/><stop offset="1" stop-color="#fbc02d"/></linearGradient><linearGradient id="g" gradientUnits="userSpaceOnUse" x1="960" y1="1695.118" x2="960" y2="815.118" gradientTransform="rotate(.24) scale(.01137)"><stop offset="0" stop-color="#64b5f6"/><stop offset="1" stop-color="#90caf9"/></linearGradient></defs><path d="M4.547 19.047H15.69v.91H4.547zm0 0" fill="url(#a)"/><path d="M15.691 19.047h1.817v-.91H15.69zm0 0" fill="url(#b)"/><path d="M4.547 19.047H2.73v.91h1.817zm0 0" fill="url(#c)"/><path d="M4.547 19.047H2.73v-.91h1.817zm0 0" fill="url(#d)"/><path d="M15.691 19.047h1.817v.91H15.69zm0 0" fill="url(#e)"/><path d="M9.098 1.992a6.368 6.368 0 1 1-.002 12.732 6.368 6.368 0 0 1 .002-12.732zm0 0" fill="url(#f)"/><path d="M9.098 1.992a6.353 6.353 0 0 0-6.368 6.48A6.35 6.35 0 0 1 9.098 2.22a6.349 6.349 0 0 1 6.363 6.254c0-.04.004-.078.004-.114a6.353 6.353 0 0 0-6.367-6.367zm0 0" fill="#fff" fill-opacity=".392"/><path d="M9.098 1.926a6.422 6.422 0 0 0-6.434 6.433 6.418 6.418 0 0 0 6.434 6.43 6.418 6.418 0 0 0 6.43-6.43 6.42 6.42 0 0 0-6.43-6.433zm0 .129c3.492 0 6.3 2.812 6.3 6.304 0 3.493-2.808 6.301-6.3 6.301a6.286 6.286 0 0 1-6.305-6.3 6.29 6.29 0 0 1 6.305-6.305zm0 0" fill="#212121"/><path d="M9.098 14.727A6.353 6.353 0 0 1 2.73 8.359v-.113a6.35 6.35 0 0 0 6.368 6.25 6.348 6.348 0 0 0 6.363-6.25c0 .035.004.074.004.113a6.353 6.353 0 0 1-6.367 6.368zm0 0" fill-opacity=".196"/><path d="M15.008 9.27c-2 0-3.719 1.16-4.52 2.847a3.715 3.715 0 0 0-.937-.12 3.63 3.63 0 0 0-3.399 2.335 2.733 2.733 0 0 0-1.605-.516 2.72 2.72 0 0 0-2.727 2.727 2.722 2.722 0 0 0 3.059 2.71.44.44 0 0 0 .125.02h10.004a4.991 4.991 0 0 0 5.004-5.003c0-2.77-2.23-5-5.004-5zm0 0" fill="url(#g)"/><path d="M15.008 9.27c-2 0-3.719 1.16-4.52 2.847a3.715 3.715 0 0 0-.937-.12 3.63 3.63 0 0 0-3.399 2.335 2.733 2.733 0 0 0-1.605-.516 2.72 2.72 0 0 0-2.727 2.727v.117a2.726 2.726 0 0 1 2.727-2.617 2.71 2.71 0 0 1 1.605.52 3.628 3.628 0 0 1 3.399-2.34c.324 0 .636.043.937.12a4.988 4.988 0 0 1 4.52-2.847 4.987 4.987 0 0 1 5 4.887c.004-.035.004-.074.004-.113 0-2.77-2.23-5-5.004-5zm0 0" fill="#fff" fill-opacity=".392"/><path d="M20.012 14.168a4.995 4.995 0 0 1-5.004 4.898H5.004a.44.44 0 0 1-.125-.02 2.724 2.724 0 0 1-3.059-2.605v.102a2.722 2.722 0 0 0 3.059 2.71.44.44 0 0 0 .125.02h10.004a4.991 4.991 0 0 0 5.004-5.003v-.102zm0 0" fill-opacity=".235"/><path d="M15.008 9.27c-2 0-3.719 1.16-4.52 2.847a3.716 3.716 0 0 0-.937-.12 3.63 3.63 0 0 0-3.399 2.335 2.733 2.733 0 0 0-1.605-.516 2.72 2.72 0 0 0-2.727 2.727 2.722 2.722 0 0 0 3.059 2.71.44.44 0 0 0 .125.02h10.004a4.991 4.991 0 0 0 5.004-5.003c0-2.77-2.23-5-5.004-5zm0 0" fill="none" stroke-width=".12892443" stroke-linecap="round" stroke="#212121"/></svg>
